Yaru++/status/symbolic/dialog-information-symbolic.svg

<svg height="16" width="16" xmlns="http://www.w3.org/2000/svg"><path d="m8 0a8 8 0 0 0 -8 8 8 8 0 0 0 8 8 8 8 0 0 0 8-8 8 8 0 0 0 -8-8zm0 1a7 7 0 0 1 7 7 7 7 0 0 1 -7 7 7 7 0 0 1 -7-7 7 7 0 0 1 7-7zm0 2.5c-.2038043 0-.3786515.0684443-.5253906.2070312-.138587.1304348-.2089844.3108017-.2089844.5390626 0 .2282608.0703974.4121942.2089844.5507812.1467391.1304347.3215863.1953125.5253906.1953125s.3750849-.0648778.5136719-.1953125c.1467391-.138587.2207031-.3225204.2207031-.5507812 0-.2282609-.073964-.4086278-.2207031-.5390626-.138587-.1385869-.3098676-.2070312-.5136719-.2070312zm-.5625 2.640625v6.359375h1.1367188v-6.359375z" fill="#808080"/></svg>

<?xml version="1.0" encoding="UTF-8" standalone="no"?>
<svg
   xmlns:dc="http://purl.org/dc/elements/1.1/"
   xmlns:cc="http://creativecommons.org/ns#"
   xmlns:rdf="http://www.w3.org/1999/02/22-rdf-syntax-ns#"
   xmlns:svg="http://www.w3.org/2000/svg"
   xmlns="http://www.w3.org/2000/svg"
   xmlns:sodipodi="http://sodipodi.sourceforge.net/DTD/sodipodi-0.dtd"
   xmlns:inkscape="http://www.inkscape.org/namespaces/inkscape"
   width="16"
   height="16"
   version="1.1"
   id="svg8"
   sodipodi:docname="dialog-information-symbolic.svg"
   inkscape:version="0.92.4 (5da689c313, 2019-01-14)">
  <metadata
     id="metadata14">
    <rdf:RDF>
      <cc:Work
         rdf:about="">
        <dc:format>image/svg+xml</dc:format>
        <dc:type
           rdf:resource="http://purl.org/dc/dcmitype/StillImage" />
        <dc:title></dc:title>
      </cc:Work>
    </rdf:RDF>
  </metadata>
  <defs
     id="defs12" />
  <sodipodi:namedview
     pagecolor="#ffffff"
     bordercolor="#666666"
     borderopacity="1"
     objecttolerance="10"
     gridtolerance="10"
     guidetolerance="10"
     inkscape:pageopacity="0"
     inkscape:pageshadow="2"
     inkscape:window-width="1384"
     inkscape:window-height="802"
     id="namedview10"
     showgrid="false"
     inkscape:zoom="14.75"
     inkscape:cx="-6.9491525"
     inkscape:cy="8"
     inkscape:window-x="0"
     inkscape:window-y="27"
     inkscape:window-maximized="0"
     inkscape:current-layer="g6" />
  <g
     fill="#808080"
     id="g6">
    <path
       d="M 8 0 A 8 8 0 0 0 0 8 A 8 8 0 0 0 8 16 A 8 8 0 0 0 16 8 A 8 8 0 0 0 8 0 z M 8 1 A 7 7 0 0 1 15 8 A 7 7 0 0 1 8 15 A 7 7 0 0 1 1 8 A 7 7 0 0 1 8 1 z M 8 3.5 C 7.7961957 3.5 7.6213485 3.5684443 7.4746094 3.7070312 C 7.3360224 3.837466 7.265625 4.0178329 7.265625 4.2460938 C 7.265625 4.4743546 7.3360224 4.658288 7.4746094 4.796875 C 7.6213485 4.9273097 7.7961957 4.9921875 8 4.9921875 C 8.2038043 4.9921875 8.3750849 4.9273097 8.5136719 4.796875 C 8.660411 4.658288 8.734375 4.4743546 8.734375 4.2460938 C 8.734375 4.0178329 8.660411 3.837466 8.5136719 3.7070312 C 8.3750849 3.5684443 8.2038043 3.5 8 3.5 z M 7.4375 6.140625 L 7.4375 12.5 L 8.5742188 12.5 L 8.5742188 6.140625 L 7.4375 6.140625 z "
       id="path2" />
    <g
       aria-label="i"
       style="font-style:normal;font-weight:normal;font-size:12.22826099px;line-height:1.25;font-family:sans-serif;letter-spacing:0px;word-spacing:0px;display:inline;fill:#808080;fill-opacity:1;stroke:none;stroke-width:0.5;enable-background:new"
       id="text6287-7" />
  </g>
</svg>
